packages/foundations/assets/icons/functional/images/audio & video/fast_backward_30_28.svg

<svg width="28" height="28" viewBox="0 0 28 28" fill="none" xmlns="http://www.w3.org/2000/svg">
<g clip-path="url(#clip0_184_254)">
<path fill-rule="evenodd" clip-rule="evenodd" d="M6.79263 14.0701C8.38363 14.0701 9.53863 15.0891 9.53863 16.4921C9.53863 17.1951 9.27763 17.7421 8.88963 18.1691C9.57163 18.6311 9.99163 19.4021 9.99163 20.3271C9.99163 23.5471 5.92463 23.7431 4.39463 23.8171H4.35163C4.12596 23.8127 3.9107 23.7214 3.7508 23.5621C3.5909 23.4028 3.49874 23.1879 3.49358 22.9622C3.48841 22.7366 3.57064 22.5177 3.72309 22.3512C3.87553 22.1848 4.0864 22.0837 4.31163 22.0691C7.77463 21.9021 8.24163 21.0951 8.24163 20.3271C8.24163 19.7611 7.90263 19.4511 7.28663 19.4511C6.89663 19.4511 6.64463 19.4761 5.83363 19.6371C5.61037 19.6769 5.38035 19.6285 5.19208 19.5021C5.00381 19.3756 4.87198 19.181 4.82439 18.9593C4.7768 18.7375 4.81716 18.506 4.93697 18.3134C5.05678 18.1209 5.24668 17.9823 5.46663 17.9271C6.52563 17.6811 7.78863 17.2331 7.78863 16.4921C7.78863 15.8691 7.02563 15.8201 6.79263 15.8201C6.22463 15.8201 5.64163 15.9781 4.95863 16.3151C4.75043 16.4178 4.50994 16.4337 4.29005 16.3591C4.07017 16.2846 3.8889 16.1257 3.78613 15.9176C3.68336 15.7094 3.6675 15.4689 3.74205 15.249C3.81659 15.0291 3.97543 14.8478 4.18363 14.7451C5.11663 14.2851 5.94563 14.0701 6.79263 14.0701ZM15.2896 4.18305C15.4047 4.1813 15.5189 4.20265 15.6255 4.24584C15.7322 4.28903 15.8291 4.35318 15.9105 4.43449C15.9919 4.5158 16.0561 4.61262 16.0995 4.71921C16.1428 4.82581 16.1642 4.94001 16.1626 5.05505C16.1626 5.28105 16.0786 5.50505 15.9096 5.67505L14.7536 6.82805C20.1096 6.77205 24.5066 11.0781 24.5066 16.4251C24.5066 18.7331 23.6896 20.9851 22.1386 22.7291L22.0716 22.8091C21.9154 22.9587 21.7069 23.0412 21.4906 23.0391C20.9836 23.0391 20.6166 22.6451 20.6166 22.1391C20.6128 21.9335 20.6827 21.7335 20.8136 21.5751C22.0702 20.1431 22.7617 18.3022 22.7586 16.3971C22.7586 11.8661 18.8976 8.37705 14.5286 8.57305L15.9086 9.95305C16.0786 10.1211 16.1626 10.3461 16.1626 10.5711C16.1644 10.6862 16.143 10.8005 16.0997 10.9072C16.0565 11.0139 15.9923 11.1108 15.9108 11.1923C15.8294 11.2737 15.7325 11.3379 15.6258 11.3812C15.5191 11.4244 15.4048 11.4458 15.2896 11.4441C15.1747 11.4445 15.0607 11.4223 14.9544 11.3787C14.848 11.3352 14.7512 11.271 14.6696 11.1901L11.9066 8.43305C11.8255 8.35156 11.7613 8.25483 11.7177 8.14842C11.6741 8.04202 11.652 7.92804 11.6526 7.81305C11.6526 7.58805 11.7376 7.36305 11.9066 7.19405L14.6686 4.43605C14.8336 4.27285 15.0566 4.18184 15.2886 4.18305H15.2896ZM15.1576 13.8081C17.1876 13.8081 18.6526 15.1211 18.6526 17.3261V19.8861C18.6526 22.1211 17.1306 23.4041 15.1576 23.4331C13.1846 23.4611 11.6906 22.1201 11.6906 19.9431V17.2411C11.6906 15.1211 13.2406 13.8081 15.1576 13.8081ZM15.1576 15.5531C13.9456 15.5531 13.4096 16.0871 13.4096 17.2411V19.9431C13.4096 21.2091 13.9176 21.7161 15.1576 21.7161C16.3696 21.7161 16.9336 21.1251 16.9336 19.8861V17.3261C16.9336 16.0591 16.4256 15.5531 15.1576 15.5531Z" fill="#1A1C1F"/>
</g>
<defs>
<clipPath id="clip0_184_254">
<rect width="28" height="28" fill="white"/>
</clipPath>
</defs>
</svg>

<svg xmlns="http://www.w3.org/2000/svg" width="28" height="28" fill="none"><g clip-path="url(#a)"><path fill="#1A1C1F" fill-rule="evenodd" d="M6.793 14.07c1.59 0 2.746 1.02 2.746 2.422 0 .703-.261 1.25-.65 1.677.683.462 1.103 1.233 1.103 2.158 0 3.22-4.067 3.416-5.597 3.49h-.043a.875.875 0 0 1-.04-1.748c3.463-.167 3.93-.974 3.93-1.742 0-.566-.34-.876-.955-.876-.39 0-.642.025-1.453.186a.875.875 0 0 1-.367-1.71c1.059-.246 2.322-.694 2.322-1.435 0-.623-.763-.672-.996-.672-.568 0-1.151.158-1.834.495a.876.876 0 0 1-.775-1.57c.933-.46 1.762-.675 2.609-.675m8.497-9.887a.86.86 0 0 1 .873.872c0 .226-.084.45-.253.62l-1.156 1.153c5.356-.056 9.753 4.25 9.753 9.597 0 2.308-.817 4.56-2.368 6.304l-.067.08a.83.83 0 0 1-.581.23c-.507 0-.874-.394-.874-.9a.86.86 0 0 1 .197-.564 7.83 7.83 0 0 0 1.945-5.178c0-4.53-3.861-8.02-8.23-7.824l1.38 1.38c.17.168.254.393.254.618a.86.86 0 0 1-.873.873.88.88 0 0 1-.62-.254l-2.763-2.757a.87.87 0 0 1-.254-.62c0-.225.085-.45.254-.619l2.762-2.758a.88.88 0 0 1 .62-.253m-.132 9.625c2.03 0 3.495 1.313 3.495 3.518v2.56c0 2.235-1.522 3.518-3.495 3.547-1.973.028-3.467-1.313-3.467-3.49v-2.702c0-2.12 1.55-3.433 3.467-3.433m0 1.745c-1.212 0-1.748.534-1.748 1.688v2.702c0 1.266.508 1.773 1.748 1.773 1.212 0 1.776-.59 1.776-1.83v-2.56c0-1.267-.508-1.773-1.776-1.773" clip-rule="evenodd"/></g><defs><clipPath id="a"><path fill="#fff" d="M0 0h28v28H0z"/></clipPath></defs></svg>
